static/img/cover-air-dev.svg

<svg width="40" height="40" viewBox="0 0 40 40" fill="none" xmlns="http://www.w3.org/2000/svg">
<g clip-path="url(#clip0_2929_20)">
<path d="M36 0H4C1.79086 0 0 1.79086 0 4V36C0 38.2091 1.79086 40 4 40H36C38.2091 40 40 38.2091 40 36V4C40 1.79086 38.2091 0 36 0Z" fill="#8F71F5"/>
<path d="M36 0H4C1.79086 0 0 1.79086 0 4V36C0 38.2091 1.79086 40 4 40H36C38.2091 40 40 38.2091 40 36V4C40 1.79086 38.2091 0 36 0Z" fill="white" fill-opacity="0.01"/>
<path d="M8.49597 10.6H12.312C13.224 10.6 14.028 10.776 14.724 11.128C15.428 11.472 15.972 11.96 16.356 12.592C16.748 13.224 16.944 13.96 16.944 14.8C16.944 15.64 16.748 16.376 16.356 17.008C15.972 17.64 15.428 18.132 14.724 18.484C14.028 18.828 13.224 19 12.312 19H8.49597V10.6ZM12.216 17.404C13.056 17.404 13.724 17.172 14.22 16.708C14.724 16.236 14.976 15.6 14.976 14.8C14.976 14 14.724 13.368 14.22 12.904C13.724 12.432 13.056 12.196 12.216 12.196H10.44V17.404H12.216ZM24.6021 15.796C24.6021 15.82 24.5901 15.988 24.5661 16.3H19.6821C19.7701 16.7 19.9781 17.016 20.3061 17.248C20.6341 17.48 21.0421 17.596 21.5301 17.596C21.8661 17.596 22.1621 17.548 22.4181 17.452C22.6821 17.348 22.9261 17.188 23.1501 16.972L24.1461 18.052C23.5381 18.748 22.6501 19.096 21.4821 19.096C20.7541 19.096 20.1101 18.956 19.5501 18.676C18.9901 18.388 18.5581 17.992 18.2541 17.488C17.9501 16.984 17.7981 16.412 17.7981 15.772C17.7981 15.14 17.9461 14.572 18.2421 14.068C18.5461 13.556 18.9581 13.16 19.4781 12.88C20.0061 12.592 20.5941 12.448 21.2421 12.448C21.8741 12.448 22.4461 12.584 22.9581 12.856C23.4701 13.128 23.8701 13.52 24.1581 14.032C24.4541 14.536 24.6021 15.124 24.6021 15.796ZM21.2541 13.864C20.8301 13.864 20.4741 13.984 20.1861 14.224C19.8981 14.464 19.7221 14.792 19.6581 15.208H22.8381C22.7741 14.8 22.5981 14.476 22.3101 14.236C22.0221 13.988 21.6701 13.864 21.2541 13.864ZM32.1392 12.544L29.4152 19H27.4832L24.7712 12.544H26.7032L28.4912 16.936L30.3392 12.544H32.1392Z" fill="white"/>
<path d="M8.68739 23.7C9.24539 23.7 9.72839 23.793 10.1364 23.979C10.5504 24.165 10.8684 24.429 11.0904 24.771C11.3124 25.113 11.4234 25.518 11.4234 25.986C11.4234 26.448 11.3124 26.853 11.0904 27.201C10.8684 27.543 10.5504 27.807 10.1364 27.993C9.72839 28.173 9.24539 28.263 8.68739 28.263H7.41839V30H5.96039V23.7H8.68739ZM8.60639 27.075C9.04439 27.075 9.37739 26.982 9.60539 26.796C9.83339 26.604 9.94739 26.334 9.94739 25.986C9.94739 25.632 9.83339 25.362 9.60539 25.176C9.37739 24.984 9.04439 24.888 8.60639 24.888H7.41839V27.075H8.60639ZM14.6605 30.072C14.1505 30.072 13.6915 29.967 13.2835 29.757C12.8815 29.541 12.5665 29.244 12.3385 28.866C12.1105 28.488 11.9965 28.059 11.9965 27.579C11.9965 27.099 12.1105 26.67 12.3385 26.292C12.5665 25.914 12.8815 25.62 13.2835 25.41C13.6915 25.194 14.1505 25.086 14.6605 25.086C15.1705 25.086 15.6265 25.194 16.0285 25.41C16.4305 25.62 16.7455 25.914 16.9735 26.292C17.2015 26.67 17.3155 27.099 17.3155 27.579C17.3155 28.059 17.2015 28.488 16.9735 28.866C16.7455 29.244 16.4305 29.541 16.0285 29.757C15.6265 29.967 15.1705 30.072 14.6605 30.072ZM14.6605 28.92C15.0205 28.92 15.3145 28.8 15.5425 28.56C15.7765 28.314 15.8935 27.987 15.8935 27.579C15.8935 27.171 15.7765 26.847 15.5425 26.607C15.3145 26.361 15.0205 26.238 14.6605 26.238C14.3005 26.238 14.0035 26.361 13.7695 26.607C13.5355 26.847 13.4185 27.171 13.4185 27.579C13.4185 27.987 13.5355 28.314 13.7695 28.56C14.0035 28.8 14.3005 28.92 14.6605 28.92ZM19.595 25.797C19.763 25.563 19.988 25.386 20.27 25.266C20.558 25.146 20.888 25.086 21.26 25.086V26.382C21.104 26.37 20.999 26.364 20.945 26.364C20.543 26.364 20.228 26.478 20 26.706C19.772 26.928 19.658 27.264 19.658 27.714V30H18.254V25.158H19.595V25.797ZM25.3848 29.766C25.2468 29.868 25.0758 29.946 24.8718 30C24.6738 30.048 24.4638 30.072 24.2418 30.072C23.6658 30.072 23.2188 29.925 22.9008 29.631C22.5888 29.337 22.4328 28.905 22.4328 28.335V26.346H21.6858V25.266H22.4328V24.087H23.8368V25.266H25.0428V26.346H23.8368V28.317C23.8368 28.521 23.8878 28.68 23.9898 28.794C24.0978 28.902 24.2478 28.956 24.4398 28.956C24.6618 28.956 24.8508 28.896 25.0068 28.776L25.3848 29.766ZM28.1259 25.086C28.8759 25.086 29.4519 25.266 29.8539 25.626C30.2559 25.98 30.4569 26.517 30.4569 27.237V30H29.1429V29.397C28.8789 29.847 28.3869 30.072 27.6669 30.072C27.2949 30.072 26.9709 30.009 26.6949 29.883C26.4249 29.757 26.2179 29.583 26.0739 29.361C25.9299 29.139 25.8579 28.887 25.8579 28.605C25.8579 28.155 26.0259 27.801 26.3619 27.543C26.7039 27.285 27.2289 27.156 27.9369 27.156H29.0529C29.0529 26.85 28.9599 26.616 28.7739 26.454C28.5879 26.286 28.3089 26.202 27.9369 26.202C27.6789 26.202 27.4239 26.244 27.1719 26.328C26.9259 26.406 26.7159 26.514 26.5419 26.652L26.0379 25.671C26.3019 25.485 26.6169 25.341 26.9829 25.239C27.3549 25.137 27.7359 25.086 28.1259 25.086ZM28.0179 29.127C28.2579 29.127 28.4709 29.073 28.6569 28.965C28.8429 28.851 28.9749 28.686 29.0529 28.47V27.975H28.0899C27.5139 27.975 27.2259 28.164 27.2259 28.542C27.2259 28.722 27.2949 28.866 27.4329 28.974C27.5769 29.076 27.7719 29.127 28.0179 29.127ZM31.7276 23.322H33.1316V30H31.7276V23.322Z" fill="#AAAAAA"/>
</g>
<defs>
<clipPath id="clip0_2929_20">
<rect width="40" height="40" fill="white"/>
</clipPath>
</defs>
</svg>

<svg xmlns="http://www.w3.org/2000/svg" width="40" height="40" fill="none" viewBox="0 0 40 40"><g clip-path="url(#a)"><path fill="#8f71f5" d="M36 0H4a4 4 0 0 0-4 4v32a4 4 0 0 0 4 4h32a4 4 0 0 0 4-4V4a4 4 0 0 0-4-4"/><path fill="#fff" fill-opacity=".01" d="M36 0H4a4 4 0 0 0-4 4v32a4 4 0 0 0 4 4h32a4 4 0 0 0 4-4V4a4 4 0 0 0-4-4"/><path fill="#fff" d="M8.496 10.6h3.816q1.368 0 2.412.528a3.8 3.8 0 0 1 1.632 1.464q.588.948.588 2.208t-.588 2.208q-.576.948-1.632 1.476Q13.68 19 12.312 19H8.496zm3.72 6.804q1.26 0 2.004-.696.756-.708.756-1.908t-.756-1.896q-.744-.708-2.004-.708H10.44v5.208zm12.386-1.608q0 .036-.036.504h-4.884q.132.6.624.948t1.224.348q.504 0 .888-.144a2.2 2.2 0 0 0 .732-.48l.996 1.08q-.912 1.044-2.664 1.044-1.092 0-1.932-.42a3.16 3.16 0 0 1-1.296-1.188 3.26 3.26 0 0 1-.456-1.716q0-.948.444-1.704a3.15 3.15 0 0 1 1.236-1.188 3.6 3.6 0 0 1 1.764-.432 3.6 3.6 0 0 1 1.716.408q.768.408 1.2 1.176.444.756.444 1.764m-3.348-1.932q-.636 0-1.068.36t-.528.984h3.18q-.096-.612-.528-.972-.432-.372-1.056-.372m10.885-1.32L29.415 19h-1.932l-2.712-6.456h1.932l1.788 4.392 1.848-4.392z"/><path fill="#aaa" d="M8.687 23.7q.837 0 1.45.279.62.279.953.792t.333 1.215q0 .693-.333 1.215-.333.513-.954.792-.611.27-1.449.27H7.418V30H5.96v-6.3zm-.08 3.375q.656 0 .998-.279.342-.288.342-.81 0-.531-.342-.81-.341-.288-.999-.288H7.418v2.187zm6.054 2.997q-.766 0-1.377-.315a2.4 2.4 0 0 1-.946-.891 2.44 2.44 0 0 1-.341-1.287q0-.72.341-1.287.343-.567.946-.882a2.9 2.9 0 0 1 1.377-.324q.765 0 1.368.324.602.315.945.882.34.567.341 1.287 0 .72-.341 1.287a2.4 2.4 0 0 1-.945.891 2.9 2.9 0 0 1-1.368.315m0-1.152q.54 0 .882-.36.35-.369.35-.981t-.35-.972a1.15 1.15 0 0 0-.882-.369q-.54 0-.891.369-.351.36-.351.972t.35.981q.352.36.892.36m4.934-3.123q.252-.351.675-.531.432-.18.99-.18v1.296a5 5 0 0 0-.315-.018q-.603 0-.945.342-.342.333-.342 1.008V30h-1.404v-4.842h1.341zm5.79 3.969a1.5 1.5 0 0 1-.513.234 2.7 2.7 0 0 1-.63.072q-.864 0-1.341-.441-.468-.441-.468-1.296v-1.989h-.747v-1.08h.747v-1.179h1.404v1.179h1.206v1.08h-1.206v1.971q0 .306.153.477.162.162.45.162.332 0 .567-.18zm2.74-4.68q1.125 0 1.729.54.603.531.603 1.611V30h-1.314v-.603q-.396.675-1.476.675-.558 0-.972-.189-.405-.189-.621-.522a1.36 1.36 0 0 1-.216-.756q0-.675.504-1.062.513-.387 1.575-.387h1.116q0-.459-.28-.702-.278-.252-.836-.252-.387 0-.765.126a2 2 0 0 0-.63.324l-.504-.981q.396-.279.945-.432a4.3 4.3 0 0 1 1.143-.153m-.107 4.041q.36 0 .639-.162a.93.93 0 0 0 .396-.495v-.495h-.963q-.864 0-.864.567 0 .27.207.432.216.153.585.153m3.71-5.805h1.404V30h-1.404z"/></g><defs><clipPath id="a"><path fill="#fff" d="M0 0h40v40H0z"/></clipPath></defs></svg>
